X:79
M:6/8
L:1/8
K:D
|: d | [Dd][Dd][Dd] [Dd][Dd][Dd] | ee{ef}g fcd | [Dd][Dd][Dd] [Dd][Dd][Dd] | eec d2 :|
|: f/g/ | aaa afd | ggg gec || [Dd][Dd][Dd] [Dd][Dd][Dd] || eec d2 :|

